X:1
T: Royal Glasgow Volunteers March
M: C
B: James Campbell's Collection 1798
Z: source from Highland Music Trust, chords by Gary Whaley
L: 1/8
K:Eb
 B>B [|: "Eb" e4 B>G | E2 E>E E2 B2 | "Ab" {=B}c2 c>c ce/d/(f/e/d/c/) | "Eb" {c}B2 B>B B2 B>B |
| "Eb" e2 e>e "Bb" f2 f>f | "Eb" g2 g>g "F" =a2 a>a | "Bb" b>fg>e d2 "F" Tc>B/c/ | "Bb" B2 B>B B2 :|]
B>B [|: "Eb" e4 B2>_d2 | "Ab" c2 A>A A2 f/a/g/b/ | {b}a2>g2 (gf)(fe) | "Bb" b2 B>B B2 B2 |
| "Ab" {=B}c2>d2 fedc | "Eb" Begb b2 a2 | gTg "Ab"{fg}af "Bb" e2 T(d>c/d/) | "Eb" e2 e>e e2 :|]

